X:1
T:Title
%%score { ( 1 3 ) | ( 2 4 ) }
L:1/8
M:4/4
K:Ab
V:1 treble nm="Grand Piano"
V:3 treble 
V:2 bass 
V:4 bass 
V:1
 z4 z2[Q:1/4=94] [A,C][B,D] | [CE]>[CE] [_C=D][=CE] [A,EA][A,EA][_DEG][EA] | %2
 [DFB]2 [A,DF]4 [A,DF][DFA] | A>G GA BGFE | %4
[M:9/8][K:bass] [CE]2- [_G,CE]- [G,CE-] [DE]2- [D-E]/D/[K:treble]C[B,D] | %5
[M:4/4] [CE]>[CE] [_C=D][=CE] [A,EA][A,EA][_DEG][EA] | [DFB]2 F4 GF | E>A cd cBGE | [CA]6 z2 | %9
 [Ec]3 [DB] [CA][CE][CF][CA] | [DG]4 d4 | d3 B G<E [EA]>[EB] | [Ec]6 z2 | %13
 [CE]3 [CF] [CA][DB][Ec][_Ge] | [Fe]4 [Fd]2 [FA][=EB] | [Ec] [Ae]3 [EAc]2 [DEB]2 |[M:3/4] [CEA]6 |] %17
V:2
 z4 z2 [A,,E,][A,,E,] | [A,,A,]>[A,,A,] [A,,A,][A,,A,] C,C,B,,C, | D,2 D,4 D,D, | %3
 [E,DE]>[E,DE] [E,DE][E,CE] [E,G,D][E,B,D][E,G,D][E,G,D] | %4
[M:9/8] z F,=A,,- A,, [B,,G,]2- [B,,G,][_A,,E,A,][A,,E,] | %5
[M:4/4] [A,,A,]>[A,,A,] [A,,A,][A,,A,] C,C,B,,C, | D,2 [D,A,D]4 [=D,A,_C][D,A,C] | %7
 [E,A,C]>[E,C] [E,A,E][E,B,E] [E,A,E][E,G,D][E,D][E,D] | [A,,E,]6 z2 | %9
 [A,,A,]3 [A,,A,] [A,,A,][A,,A,][A,,A,][A,,E,] | z4 [E,G,]2 z2 | %11
 [E,G,E]3 [E,G,E] [E,B,E]<[D,B,] [C,A,]>[B,,G,] | A,4 z4 | %13
 [A,,A,]3 [A,,A,] [A,,E,][A,,E,][A,,A,][C,A,] | [D,A,]4 [D,A,]2 [D,D][D,D] | %15
 [E,A,] [E,C]3 E,2 E,2 |[M:3/4] A,,6 |] %17
V:3
 x8 | x8 | x8 | x8 |[M:9/8][K:bass] .A,3 z3 z3[K:treble] |[M:4/4] x8 | x8 | x8 | x8 | x8 | %10
 z2 E,2 z2 G,2 | x8 | x8 | x8 | x8 | x8 |[M:3/4] x6 |] %17
V:4
 x8 | x8 | x8 | x8 |[M:9/8] .A,,3 z3 z3 |[M:4/4] x8 | x8 | x8 | x8 | x8 | %10
 [B,,E,]2 B,,2 E2- [E,E]2 | x8 | A,,2 C,E, A,2 z2 | x8 | x8 | x8 |[M:3/4] x6 |] %17

